X:1
T:Patricia, It's Patricia
T:Patricia, its Patricia
T:Perez Prado
T:English: Bob Marcus
C:Perez Prado
Z:All Rights Reserved
L:1/8
M:4/4
K:C
V:1 treble 
%%MIDI program 4
V:1
"C" E2"^Cha-Cha" G2 z4 | EGEG EGEG |"G7" F2 G2 z4 | z8 | F2 G4 z2 | FGFG dBGF |"C" E8- | E6 z2 | %8
w: Kiss her|and your lips will al- ways want Pa-|tri- cia||stroll her|see Pat- tri- cia move with all her|charms||
w: ||||||||
 E2 G2 z4 | EGEG EGEG |"G7" F2 G2 z4 | z8 | F2 G2 z4 | FGFG dBGG |"C" B2"^(End 2nd Time)" c2 z4 | %15
w: Mam- bo|cha- cha or me- ren- gue its Pa-|tri- cia||heav- en|thats where you'll be when she's in your|arms *|
w: Far off|in Ja- pan they brag a- bout their|Gei- sha||who cares|long as Un- cle Sam has got Pat-|ri- cia|
 E2 EE BBAA | E2 EC E2 A2 | E2 EE BBAA |"G7" F2 FD F2 B2 | G2 FF ccBB | F2 F2 z4 | G2 FF ccBB | %22
w: who took the place of de de|Di- nah? Pa- tri- cia|and Peg- gy Sue is jea- lous|too of Pa- tri- cia|and when she's wear- ing her bi-|ki- ni|her hips will have you hyp- no-|
w: |||||||
"C" A8- | A8 | E2 G2 z4 | EGEG EGEG |"G7" F2 G2 z4 | z8 | F2 G2 z4 | FGFG dBGB |"C" d2 c2 z4 | z8 | %32
w: tized||far off|in Ja- pan they brag a- bout their|Gei- sha||who cares|long as Un- cle Sam has got Pa-|tri- cia||
w: ||||||||||
 e8- | edcB dcBA |"G7" c6 d2 | B8 | d8- | dcBA cBAG |"C" B6 c2 | A8 | EEEE GGGG | AAAA B2 B2 | %42
w: eyes|* that have a star- ry sort of|gleam for|you|she|* is like a mil- lion dol- lar|dream come|true|ev- ry- bod- y wish- es they could|steal her heart a- way I|
w: ||||||||||
"G7" A8- | A8 | FFFF GGGG | AAAA B2 B2 |"C" A8- |"G7" A8 :| %48
w: guess||theres so man- y try- ing but she|nev- er nev- er will say|yes!||
w: ||||||

